static/img/kroki/b30a3c7325da4ea7f4d67ba3137a2e12.svg

<?xml version="1.0" encoding="us-ascii" standalone="no"?><svg xmlns="http://www.w3.org/2000/svg" xmlns:xlink="http://www.w3.org/1999/xlink" contentStyleType="text/css" height="374px" preserveAspectRatio="none" style="width:387px;height:374px;" version="1.1" viewBox="0 0 387 374" width="387px" zoomAndPan="magnify"><defs/><g><!--class digitalocean_cdn_endpoint--><g id="elem_digitalocean_cdn_endpoint"><rect codeLine="23" fill="#3D176E" height="39.7891" id="digitalocean_cdn_endpoint" rx="2.5" ry="2.5" style="stroke:#000D19;stroke-width:0.5;" width="264" x="87.5" y="328.58"/><ellipse cx="102.5" cy="348.4745" fill="#ADD1B2" rx="11" ry="11" style="stroke:#181818;stroke-width:1.0;"/><path d="M105.4688,354.1152 Q104.8906,354.412 104.25,354.5527 Q103.6094,354.7089 102.9063,354.7089 Q100.4063,354.7089 99.0781,353.0683 Q97.7656,351.412 97.7656,348.287 Q97.7656,345.162 99.0781,343.5058 Q100.4063,341.8495 102.9063,341.8495 Q103.6094,341.8495 104.25,342.0058 Q104.9063,342.162 105.4688,342.4589 L105.4688,345.1777 Q104.8438,344.5995 104.25,344.3339 Q103.6563,344.0527 103.0313,344.0527 Q101.6875,344.0527 101,345.1308 Q100.3125,346.1933 100.3125,348.287 Q100.3125,350.3808 101,351.4589 Q101.6875,352.5214 103.0313,352.5214 Q103.6563,352.5214 104.25,352.2558 Q104.8438,351.9745 105.4688,351.3964 L105.4688,354.1152 Z " fill="#000000"/><text fill="#D9B8FF" font-family="Helvetica" font-size="17" lengthAdjust="spacing" textLength="222" x="121.5" y="354.3598">digitalocean_cdn_endpoint</text></g><!--class digitalocean_resource--><g id="elem_digitalocean_resource"><rect codeLine="26" fill="#3D176E" height="39.7891" id="digitalocean_resource" rx="2.5" ry="2.5" style="stroke:#000D19;stroke-width:0.5;" width="223" x="7" y="167.79"/><ellipse cx="22" cy="187.6845" fill="#ADD1B2" rx="11" ry="11" style="stroke:#181818;stroke-width:1.0;"/><path d="M24.9688,193.3252 Q24.3906,193.622 23.75,193.7627 Q23.1094,193.9189 22.4063,193.9189 Q19.9063,193.9189 18.5781,192.2783 Q17.2656,190.622 17.2656,187.497 Q17.2656,184.372 18.5781,182.7158 Q19.9063,181.0595 22.4063,181.0595 Q23.1094,181.0595 23.75,181.2158 Q24.4063,181.372 24.9688,181.6689 L24.9688,184.3877 Q24.3438,183.8095 23.75,183.5439 Q23.1563,183.2627 22.5313,183.2627 Q21.1875,183.2627 20.5,184.3408 Q19.8125,185.4033 19.8125,187.497 Q19.8125,189.5908 20.5,190.6689 Q21.1875,191.7314 22.5313,191.7314 Q23.1563,191.7314 23.75,191.4658 Q24.3438,191.1845 24.9688,190.6064 L24.9688,193.3252 Z " fill="#000000"/><text fill="#D9B8FF" font-family="Helvetica" font-size="17" lengthAdjust="spacing" textLength="181" x="41" y="193.5698">digitalocean_resource</text></g><!--class endpoint--><g id="elem_endpoint"><rect codeLine="29" fill="#3D176E" height="39.7891" id="endpoint" rx="2.5" ry="2.5" style="stroke:#000D19;stroke-width:0.5;" width="116" x="264.5" y="167.79"/><ellipse cx="279.5" cy="187.6845" fill="#ADD1B2" rx="11" ry="11" style="stroke:#181818;stroke-width:1.0;"/><path d="M282.4688,193.3252 Q281.8906,193.622 281.25,193.7627 Q280.6094,193.9189 279.9063,193.9189 Q277.4063,193.9189 276.0781,192.2783 Q274.7656,190.622 274.7656,187.497 Q274.7656,184.372 276.0781,182.7158 Q277.4063,181.0595 279.9063,181.0595 Q280.6094,181.0595 281.25,181.2158 Q281.9063,181.372 282.4688,181.6689 L282.4688,184.3877 Q281.8438,183.8095 281.25,183.5439 Q280.6563,183.2627 280.0313,183.2627 Q278.6875,183.2627 278,184.3408 Q277.3125,185.4033 277.3125,187.497 Q277.3125,189.5908 278,190.6689 Q278.6875,191.7314 280.0313,191.7314 Q280.6563,191.7314 281.25,191.4658 Q281.8438,191.1845 282.4688,190.6064 L282.4688,193.3252 Z " fill="#000000"/><text fill="#D9B8FF" font-family="Helvetica" font-size="17" lengthAdjust="spacing" textLength="74" x="298.5" y="193.5698">endpoint</text></g><!--class resource--><g id="elem_resource"><rect codeLine="32" fill="#3D176E" height="39.7891" id="resource" rx="2.5" ry="2.5" style="stroke:#000D19;stroke-width:0.5;" width="113" x="163" y="7"/><ellipse cx="178" cy="26.8945" fill="#ADD1B2" rx="11" ry="11" style="stroke:#181818;stroke-width:1.0;"/><path d="M180.9688,32.5352 Q180.3906,32.832 179.75,32.9727 Q179.1094,33.1289 178.4063,33.1289 Q175.9063,33.1289 174.5781,31.4883 Q173.2656,29.832 173.2656,26.707 Q173.2656,23.582 174.5781,21.9258 Q175.9063,20.2695 178.4063,20.2695 Q179.1094,20.2695 179.75,20.4258 Q180.4063,20.582 180.9688,20.8789 L180.9688,23.5977 Q180.3438,23.0195 179.75,22.7539 Q179.1563,22.4727 178.5313,22.4727 Q177.1875,22.4727 176.5,23.5508 Q175.8125,24.6133 175.8125,26.707 Q175.8125,28.8008 176.5,29.8789 Q177.1875,30.9414 178.5313,30.9414 Q179.1563,30.9414 179.75,30.6758 Q180.3438,30.3945 180.9688,29.8164 L180.9688,32.5352 Z " fill="#000000"/><text fill="#D9B8FF" font-family="Helvetica" font-size="17" lengthAdjust="spacing" textLength="71" x="197" y="32.7798">resource</text></g><!--reverse link digitalocean_resource to digitalocean_cdn_endpoint--><g id="link_digitalocean_resource_digitalocean_cdn_endpoint"><path codeLine="35" d="M140.3431,223.0263 C159.7631,253.5463 187.83,297.69 207.27,328.25 " fill="none" id="digitalocean_resource-backto-digitalocean_cdn_endpoint" style="stroke:#FFAF37;stroke-width:2.0;"/><polygon fill="none" points="130.68,207.84,135.281,226.2474,145.4052,219.8053,130.68,207.84" style="stroke:#FFAF37;stroke-width:2.0;"/></g><!--reverse link endpoint to digitalocean_cdn_endpoint--><g id="link_endpoint_digitalocean_cdn_endpoint"><path codeLine="36" d="M300.2834,222.9406 C280.4834,253.4606 251.79,297.69 231.97,328.25 " fill="none" id="endpoint-backto-digitalocean_cdn_endpoint" style="stroke:#FFAF37;stroke-width:2.0;"/><polygon fill="none" points="310.08,207.84,295.2499,219.675,305.317,226.2061,310.08,207.84" style="stroke:#FFAF37;stroke-width:2.0;"/></g><!--reverse link resource to digitalocean_resource--><g id="link_resource_digitalocean_resource"><path codeLine="37" d="M197.6569,62.2363 C178.2369,92.7563 150.17,136.9 130.73,167.46 " fill="none" id="resource-backto-digitalocean_resource" style="stroke:#FFAF37;stroke-width:2.0;"/><polygon fill="none" points="207.32,47.05,192.5948,59.0153,202.719,65.4574,207.32,47.05" style="stroke:#FFAF37;stroke-width:2.0;"/></g><!--reverse link resource to endpoint--><g id="link_resource_endpoint"><path codeLine="38" d="M241.7166,62.1506 C261.5166,92.6706 290.21,136.9 310.03,167.46 " fill="none" id="resource-backto-endpoint" style="stroke:#FFAF37;stroke-width:2.0;"/><polygon fill="none" points="231.92,47.05,236.683,65.4161,246.7501,58.885,231.92,47.05" style="stroke:#FFAF37;stroke-width:2.0;"/></g><!--SRC=[XT1DRy8m30RWUtz59Cv8T6W3f5qOqhHTq3HsHsxiG4IRL8uPOX__VUiOLMWBNECdzcklBPAYefIzAgZ8Y4CIDjQLm52eARFVpNpkMVMC0JCSDOkFtibLC8U2r1FbxoHMGrEyhQtUE0f1tKIb1z2R5VkjmqDxON3XjqHE8ZNB8OIf2DjiAnI5mKasDgOfcqrxGqn7TzHYdf7udmm60qmdJN9rrCMzQx6m7wJI-6XpBzIAsHhnfowch4GKihNeiNusumiWMhTIjz7Rwo4JE-AJzyKQqEygRI0FyPWWnEHbNzAijHLDncX6dVZv74vqTJg5TcK5Sgy9t5AZMvB3qbidwZD9lhiGK_1RrXI3ha-dhhl5_LU_tp-V8QdxNeENEXvhJLH__W40]--></g></svg>

<svg xmlns="http://www.w3.org/2000/svg" width="387" height="374" viewBox="0 0 387 374"><rect width="264" height="39.789" x="87.5" y="328.58" fill="#3D176E" rx="2.5" ry="2.5" style="stroke:#000d19;stroke-width:.5"/><circle cx="102.5" cy="348.474" r="11" fill="#ADD1B2" style="stroke:#181818;stroke-width:1"/><path d="M105.469 354.115q-.578.297-1.219.438-.64.156-1.344.156-2.5 0-3.828-1.64-1.312-1.657-1.312-4.782t1.312-4.781q1.328-1.656 3.828-1.656.703 0 1.344.156.656.156 1.219.453v2.719q-.625-.579-1.219-.844-.594-.281-1.219-.281-1.344 0-2.031 1.078-.687 1.062-.687 3.156t.687 3.172q.688 1.062 2.031 1.062.625 0 1.219-.265.594-.281 1.219-.86z"/><text x="121.5" y="354.36" fill="#D9B8FF" font-family="Helvetica" font-size="17" textLength="222">digitalocean_cdn_endpoint</text><rect width="223" height="39.789" x="7" y="167.79" fill="#3D176E" rx="2.5" ry="2.5" style="stroke:#000d19;stroke-width:.5"/><circle cx="22" cy="187.685" r="11" fill="#ADD1B2" style="stroke:#181818;stroke-width:1"/><path d="M24.969 193.325q-.578.297-1.219.438-.64.156-1.344.156-2.5 0-3.828-1.64-1.312-1.657-1.312-4.782t1.312-4.781q1.328-1.656 3.828-1.656.703 0 1.344.156.656.156 1.219.453v2.719q-.625-.578-1.219-.844-.594-.281-1.219-.281-1.343 0-2.031 1.078-.687 1.062-.687 3.156t.687 3.172q.688 1.062 2.031 1.062.625 0 1.219-.265.594-.281 1.219-.86z"/><text x="41" y="193.57" fill="#D9B8FF" font-family="Helvetica" font-size="17" textLength="181">digitalocean_resource</text><rect width="116" height="39.789" x="264.5" y="167.79" fill="#3D176E" rx="2.5" ry="2.5" style="stroke:#000d19;stroke-width:.5"/><circle cx="279.5" cy="187.685" r="11" fill="#ADD1B2" style="stroke:#181818;stroke-width:1"/><path d="M282.469 193.325q-.578.297-1.219.438-.64.156-1.344.156-2.5 0-3.828-1.64-1.312-1.657-1.312-4.782t1.312-4.781q1.328-1.656 3.828-1.656.703 0 1.344.156.656.156 1.219.453v2.719q-.625-.578-1.219-.844-.594-.281-1.219-.281-1.344 0-2.031 1.078-.687 1.062-.687 3.156t.687 3.172q.688 1.062 2.031 1.062.625 0 1.219-.265.594-.281 1.219-.86z"/><text x="298.5" y="193.57" fill="#D9B8FF" font-family="Helvetica" font-size="17" textLength="74">endpoint</text><rect width="113" height="39.789" x="163" y="7" fill="#3D176E" rx="2.5" ry="2.5" style="stroke:#000d19;stroke-width:.5"/><circle cx="178" cy="26.895" r="11" fill="#ADD1B2" style="stroke:#181818;stroke-width:1"/><path d="M180.969 32.535q-.578.297-1.219.438-.64.156-1.344.156-2.5 0-3.828-1.64-1.312-1.657-1.312-4.782t1.312-4.781q1.328-1.656 3.828-1.656.703 0 1.344.156.656.156 1.219.453v2.719q-.625-.578-1.219-.844-.594-.281-1.219-.281-1.344 0-2.031 1.078-.687 1.062-.687 3.156t.687 3.172q.688 1.062 2.031 1.062.625 0 1.219-.265.594-.281 1.219-.86z"/><text x="197" y="32.78" fill="#D9B8FF" font-family="Helvetica" font-size="17" textLength="71">resource</text><g fill="none"><path d="M140.343 223.026c19.42 30.52 47.487 74.664 66.927 105.224" style="stroke:#ffaf37;stroke-width:2"/><path d="m130.68 207.84 4.601 18.407 10.124-6.442z" style="stroke:#ffaf37;stroke-width:2"/></g><g fill="none"><path d="M300.283 222.94c-19.8 30.52-48.493 74.75-68.313 105.31" style="stroke:#ffaf37;stroke-width:2"/><path d="m310.08 207.84-14.83 11.835 10.067 6.531z" style="stroke:#ffaf37;stroke-width:2"/></g><g fill="none"><path d="M197.657 62.236c-19.42 30.52-47.487 74.664-66.927 105.224" style="stroke:#ffaf37;stroke-width:2"/><path d="m207.32 47.05-14.725 11.965 10.124 6.442z" style="stroke:#ffaf37;stroke-width:2"/></g><g fill="none"><path d="M241.717 62.15c19.8 30.52 48.493 74.75 68.313 105.31" style="stroke:#ffaf37;stroke-width:2"/><path d="m231.92 47.05 4.763 18.366 10.067-6.531z" style="stroke:#ffaf37;stroke-width:2"/></g></svg>
